icons/trans-inclusive-two-color.svg

<?xml version="1.0" encoding="UTF-8"?><svg xmlns="http://www.w3.org/2000/svg" viewBox="0 0 50 50"><g id="uuid-72303209-ab39-4d12-b9aa-725b19873f25"><g><circle cx="26.75" cy="23.74" r="14.36" fill="#ffcd00"/><path d="M32.21,18.86h-14.43c-.28,0-.5,.22-.5,.5s.22,.5,.5,.5h14.43c.28,0,.5-.22,.5-.5s-.22-.5-.5-.5Z"/><path d="M32.21,24.12h-14.43c-.28,0-.5,.22-.5,.5s.22,.5,.5,.5h14.43c.28,0,.5-.22,.5-.5s-.22-.5-.5-.5Z"/><path d="M46.12,1.13s0-.08-.02-.11c-.02-.04-.04-.07-.07-.1-.01-.02-.02-.04-.04-.06h0s-.09-.08-.14-.1c0,0-.01,0-.02-.01-.02-.01-.05-.01-.08-.02-.04,0-.07-.02-.11-.02h-7.16c-.28,0-.5,.22-.5,.5s.22,.5,.5,.5h5.9l-9.21,8.82c-2.71-2.41-6.28-3.89-10.18-3.89s-7.47,1.48-10.18,3.89l-2.88-2.76,3.23-3.23c.2-.2,.2-.51,0-.71s-.51-.2-.71,0l-3.25,3.25L5.61,1.71h5.9c.28,0,.5-.22,.5-.5s-.22-.5-.5-.5H4.35s-.07,.01-.1,.02c-.1,.02-.18,.06-.25,.13h0s-.02,.04-.04,.06c-.02,.03-.05,.07-.07,.1-.01,.04-.02,.07-.02,.11,0,.02-.01,.05-.01,.07v6.82c0,.28,.22,.5,.5,.5s.5-.22,.5-.5V2.38l5.64,5.4-3.23,3.23c-.2,.2-.2,.51,0,.71,.1,.1,.23,.15,.35,.15s.26-.05,.35-.15l3.25-3.25,2.86,2.73c-2.74,2.78-4.44,6.58-4.44,10.78,0,8.3,6.62,15.07,14.86,15.33v7.15h-4.66c-.28,0-.5,.22-.5,.5s.22,.5,.5,.5h4.66v3.32c0,.28,.22,.5,.5,.5s.5-.22,.5-.5v-3.32h4.51c.28,0,.5-.22,.5-.5s-.22-.5-.5-.5h-4.51v-7.15c8.24-.27,14.86-7.03,14.86-15.33,0-4.2-1.7-8.01-4.44-10.78L45.14,2.38v5.65c0,.28,.22,.5,.5,.5s.5-.22,.5-.5V1.21s-.01-.05-.01-.07Zm-6.77,20.86c0,7.92-6.44,14.36-14.36,14.36s-14.36-6.44-14.36-14.36,6.44-14.36,14.36-14.36,14.36,6.44,14.36,14.36Z"/></g></g><g id="uuid-a206fe9f-9ec9-4a62-b5d1-c48aec001914"><text transform="translate(.08 54.84)" font-family="Roboto-Regular, Roboto" font-size="6"><tspan x="0" y="0">t</tspan><tspan x="1.96" y="0" letter-spacing="-.02em">r</tspan><tspan x="3.87" y="0">ans-inclusi</tspan><tspan x="32.42" y="0" letter-spacing="0em">v</tspan><tspan x="35.29" y="0">e</tspan></text></g></svg>

<svg xmlns="http://www.w3.org/2000/svg" viewBox="0 0 50 50"><g id="aa3cf253-cfa2-4248-ab28-71648cc29da8" data-name="ICONS"><circle cx="26.75" cy="23.74" r="14.36" fill="#fdd600"/><path d="M32.21,18.86H17.79a.5.5,0,0,0-.5.5.5.5,0,0,0,.5.5H32.21a.5.5,0,0,0,.5-.5A.5.5,0,0,0,32.21,18.86Z" fill="#231f20"/><path d="M32.21,24.12H17.79a.5.5,0,0,0-.5.5.5.5,0,0,0,.5.5H32.21a.5.5,0,0,0,.5-.5A.5.5,0,0,0,32.21,24.12Z" fill="#231f20"/><path d="M46.12,1.13a.23.23,0,0,0,0-.11A.33.33,0,0,0,46,.92s0,0,0-.06h0a.56.56,0,0,0-.15-.1h0l-.08,0-.11,0H38.49a.5.5,0,0,0-.5.5.5.5,0,0,0,.5.5h5.9l-9.21,8.81a15.27,15.27,0,0,0-20.36,0L11.93,7.76l3.23-3.23a.5.5,0,0,0,0-.71.5.5,0,0,0-.7,0L11.21,7.07,5.61,1.71h5.9a.5.5,0,0,0,.5-.5.5.5,0,0,0-.5-.5H4.35l-.1,0A.5.5,0,0,0,4,.86H4s0,0,0,.06A.33.33,0,0,0,3.9,1a.23.23,0,0,0,0,.11.24.24,0,0,0,0,.08V8a.5.5,0,1,0,1,0V2.38l5.64,5.4L7.27,11a.5.5,0,0,0,0,.71.5.5,0,0,0,.35.15A.51.51,0,0,0,8,11.72l3.24-3.25,2.86,2.74A15.33,15.33,0,0,0,24.5,37.32v7.15H19.84a.51.51,0,0,0-.5.5.5.5,0,0,0,.5.5H24.5v3.32a.5.5,0,0,0,1,0V45.47H30a.5.5,0,0,0,.5-.5.5.5,0,0,0-.5-.5H25.5V37.32A15.33,15.33,0,0,0,35.92,11.21l9.22-8.83V8a.5.5,0,0,0,1,0V1.21A.24.24,0,0,0,46.12,1.13ZM39.36,22A14.36,14.36,0,1,1,25,7.63,14.37,14.37,0,0,1,39.36,22Z" fill="#231f20"/></g><g id="a0ac6d6e-3e43-45dd-89ee-f83ad9fb9154" data-name="LABELS"><text transform="translate(0.08 54.84)" font-size="6" fill="#231f20" font-family="Roboto-Regular, Roboto">t<tspan x="1.96" y="0" letter-spacing="-0.02em">r</tspan><tspan x="3.87" y="0">ans-inclusi</tspan><tspan x="32.42" y="0" letter-spacing="-0.01em">v</tspan><tspan x="35.29" y="0">e</tspan></text></g></svg>
